src/4-icons/down.svg

<svg width="260" height="260" viewBox="0 0 260 260" fill="none" xmlns="http://www.w3.org/2000/svg">
<path d="M130 18.9926C132.619 18.9926 135.131 20.0331 136.983 21.8853C138.836 23.7374 139.876 26.2495 139.876 28.8688V205.071L204.851 139.906C205.823 138.934 206.977 138.163 208.247 137.637C209.517 137.111 210.879 136.84 212.253 136.84C213.628 136.84 214.989 137.111 216.259 137.637C217.529 138.163 218.683 138.934 219.655 139.906C220.628 140.878 221.399 142.032 221.925 143.302C222.451 144.572 222.722 145.934 222.722 147.308C222.722 148.683 222.451 150.044 221.925 151.314C221.399 152.584 220.628 153.738 219.655 154.71L136.737 238.218C135.845 239.122 134.782 239.839 133.61 240.329C132.438 240.819 131.18 241.071 129.91 241.071C128.64 241.071 127.382 240.819 126.21 240.329C125.038 239.839 123.975 239.122 123.083 238.218L40.3544 154.68C38.3913 152.717 37.2884 150.055 37.2884 147.278C37.2884 144.502 38.3913 141.839 40.3544 139.876C42.3176 137.913 44.9802 136.81 47.7566 136.81C50.5329 136.81 53.1956 137.913 55.1587 139.876L120.134 205.041V28.8388C120.142 26.2264 121.184 23.7236 123.033 21.8782C124.883 20.0328 127.388 18.9952 130 18.9926ZM130 10.9957C125.261 11.001 120.718 12.8857 117.368 16.2364C114.017 19.5872 112.132 24.1302 112.127 28.8688V185.728L60.8166 134.228C59.0133 132.427 56.8566 131.019 54.4823 130.092C52.1081 129.166 49.5677 128.741 47.0211 128.844C44.4745 128.947 41.9768 129.576 39.6854 130.692C37.394 131.808 35.3585 133.387 33.707 135.328C30.7295 138.869 29.1815 143.394 29.3664 148.017C29.5513 152.639 31.4558 157.026 34.7066 160.318L117.395 243.796C119.031 245.445 120.978 246.754 123.122 247.647C125.267 248.54 127.567 249 129.89 249C132.213 249 134.513 248.54 136.658 247.647C138.802 246.754 140.749 245.445 142.385 243.796L225.303 160.288C227.877 157.702 229.628 154.411 230.333 150.831C231.038 147.251 230.666 143.543 229.265 140.174C227.864 136.805 225.496 133.926 222.46 131.902C219.425 129.878 215.857 128.798 212.208 128.8C209.795 128.797 207.405 129.271 205.175 130.194C202.945 131.117 200.919 132.471 199.213 134.178L147.943 185.698V28.8388C147.936 26.4891 147.467 24.1636 146.562 21.9952C145.657 19.8268 144.333 17.858 142.667 16.2011C141.001 14.5442 139.025 13.2317 136.851 12.3386C134.678 11.4454 132.35 10.9891 130 10.9957Z" fill="black"/>
</svg>

<svg width="260" height="260" fill="none" xmlns="http://www.w3.org/2000/svg"><path d="M130 18.993a9.875 9.875 0 0 1 9.876 9.876V205.07l64.975-65.165a10.467 10.467 0 0 1 14.804 0 10.454 10.454 0 0 1 3.067 7.402 10.468 10.468 0 0 1-3.067 7.402l-82.918 83.508a9.587 9.587 0 0 1-6.827 2.853 9.593 9.593 0 0 1-6.827-2.853L40.354 154.68a10.467 10.467 0 0 1 7.403-17.87c2.776 0 5.439 1.103 7.402 3.066l64.975 65.165V28.839A9.876 9.876 0 0 1 130 18.993Zm0-7.997a17.89 17.89 0 0 0-17.873 17.873v156.859l-51.31-51.5a18.469 18.469 0 0 0-21.132-3.536 18.468 18.468 0 0 0-5.978 4.636 18.563 18.563 0 0 0 1 24.99l82.688 83.478a17.601 17.601 0 0 0 24.99 0l82.918-83.508a18.464 18.464 0 0 0-20.128-30.094 18.352 18.352 0 0 0-5.962 3.984l-51.27 51.52V28.838a17.907 17.907 0 0 0-5.276-12.637A17.885 17.885 0 0 0 130 10.996Z" fill="#000"/></svg>
